Newaita-dark/actions/32/format-text-lowercase.svg

<svg height="32" viewBox="0 0 32 32" width="32" xmlns="http://www.w3.org/2000/svg"><g fill="#e0e0e0"><path d="m17.199219 12.15625v15.878906h2.644531v-.527344c.78125.335938 1.683594.527344 2.648438.527344 2.628906 0 4.800781-1.425781 5.21875-3.308594h.074218v-.660156c0-2.199218-2.363281-3.972656-5.292968-3.972656-.964844 0-1.867188.195312-2.648438.53125v-8.46875zm5.292969 10.585938c1.464843 0 2.644531.589843 2.644531 1.324218 0 .730469-1.179688 1.320313-2.644531 1.320313-1.464844 0-2.648438-.589844-2.648438-1.320313 0-.734375 1.183594-1.324218 2.648438-1.324218zm0 0"/><path d="m9.261719 12.15625c-2.933594 0-5.292969 1.769531-5.292969 3.96875v11.910156h2.644531v-5.292968h5.292969v5.292968h2.648438v-11.910156c0-2.199219-2.363282-3.96875-5.292969-3.96875zm0 2.648438c1.464843 0 2.644531.589843 2.644531 1.320312v3.96875h-5.292969v-3.96875c0-.730469 1.183594-1.320312 2.648438-1.320312zm0 0"/><path d="m18.523438 4.21875h9.261718l-4.632812 6.617188zm0 0"/></g></svg>

<?xml version="1.0" encoding="UTF-8"?>
<svg xmlns="http://www.w3.org/2000/svg" xmlns:xlink="http://www.w3.org/1999/xlink" width="32px" height="32px" viewBox="0 0 32 32" version="1.1">
<g id="surface1">
<path style=" stroke:none;fill-rule:nonzero;fill:rgb(87.843138%,87.843138%,87.843138%);fill-opacity:1;" d="M 17.199219 12.15625 L 17.199219 28.035156 L 19.84375 28.035156 L 19.84375 27.507812 C 20.625 27.84375 21.527344 28.035156 22.492188 28.035156 C 25.121094 28.035156 27.292969 26.609375 27.710938 24.726562 L 27.785156 24.726562 L 27.785156 24.066406 C 27.785156 21.867188 25.421875 20.09375 22.492188 20.09375 C 21.527344 20.09375 20.625 20.289062 19.84375 20.625 L 19.84375 12.15625 Z M 22.492188 22.742188 C 23.957031 22.742188 25.136719 23.332031 25.136719 24.066406 C 25.136719 24.796875 23.957031 25.386719 22.492188 25.386719 C 21.027344 25.386719 19.84375 24.796875 19.84375 24.066406 C 19.84375 23.332031 21.027344 22.742188 22.492188 22.742188 Z M 22.492188 22.742188 "/>
<path style=" stroke:none;fill-rule:nonzero;fill:rgb(87.843138%,87.843138%,87.843138%);fill-opacity:1;" d="M 9.261719 12.15625 C 6.328125 12.15625 3.96875 13.925781 3.96875 16.125 L 3.96875 28.035156 L 6.613281 28.035156 L 6.613281 22.742188 L 11.90625 22.742188 L 11.90625 28.035156 L 14.554688 28.035156 L 14.554688 16.125 C 14.554688 13.925781 12.191406 12.15625 9.261719 12.15625 Z M 9.261719 14.804688 C 10.726562 14.804688 11.90625 15.394531 11.90625 16.125 L 11.90625 20.09375 L 6.613281 20.09375 L 6.613281 16.125 C 6.613281 15.394531 7.796875 14.804688 9.261719 14.804688 Z M 9.261719 14.804688 "/>
<path style=" stroke:none;fill-rule:nonzero;fill:rgb(87.843138%,87.843138%,87.843138%);fill-opacity:1;" d="M 18.523438 4.21875 L 27.785156 4.21875 L 23.152344 10.835938 Z M 18.523438 4.21875 "/>
</g>
</svg>
